img/svg/placeholder-tool.svg

<svg width="512" height="512" viewBox="0 0 512 512" fill="none" xmlns="http://www.w3.org/2000/svg">
<path d="M340.162 18.1858C330.302 18.3238 322.566 21.1428 317.472 26.2378C308.412 35.2958 306.544 52.7078 314.154 75.5378C321.764 98.3698 338.591 125.142 362.724 149.275C386.858 173.409 413.63 190.235 436.461 197.845C459.293 205.455 476.705 203.589 485.763 194.531C492.626 187.669 495.35 176.001 492.963 160.821C491.803 166.134 489.429 171.067 485.521 174.976C479.551 180.944 471.203 183.35 462.745 183.286C454.287 183.223 445.299 180.944 435.847 177.052C416.941 169.268 396.087 154.842 376.627 135.379C357.164 115.917 342.737 95.0618 334.952 76.1558C331.062 66.7038 328.782 57.7178 328.719 49.2598C328.709 48.1428 328.749 47.0278 328.829 45.9198C330.839 54.1227 335.141 63.4916 341.366 73.2203C347.592 82.949 355.553 92.7459 364.565 101.768C379.323 116.526 395.92 128.237 410.704 134.324C425.488 140.412 437.248 140.377 443.397 134.228C446.442 131.183 448.018 126.729 448.034 121.119C448.051 115.51 446.508 108.855 443.494 101.535C440.48 94.2142 436.053 86.3719 430.467 78.4552C424.881 70.5385 418.245 62.7026 410.937 55.3948C399.864 44.3279 387.669 34.8902 375.912 28.2885C364.154 21.6869 353.369 18.2213 344.934 18.3348C343.347 18.22 341.755 18.1709 340.164 18.1878L340.162 18.1858ZM291.395 50.2858C284.407 57.1158 277.431 64.4558 273.152 70.3928C267.824 77.7848 261.642 84.8048 257.43 91.4588C253.218 98.1118 251.26 103.719 252.107 108.942C263.294 177.875 334.124 248.705 403.057 259.892C408.28 260.739 413.887 258.782 420.541 254.569C427.196 250.357 434.216 244.175 441.608 238.847C447.544 234.567 454.884 227.592 461.716 220.604C451.921 220.499 441.414 218.471 430.771 214.924C404.465 206.154 375.851 187.856 349.999 162.004C324.146 136.15 305.849 107.534 297.079 81.2288C293.531 70.5858 291.501 60.0788 291.396 50.2838L291.395 50.2858ZM244.005 146.533L49.2439 359.31C66.9219 403.724 108.274 445.077 152.69 462.756L365.467 267.996C312.147 247.008 264.992 199.853 244.004 146.533H244.005ZM227.199 244.133C227.796 244.163 228.419 244.227 229.069 244.33C238.606 245.836 246.967 251.308 253.829 258.17C260.691 265.032 266.163 273.393 267.669 282.93C268.489 288.133 266.859 291.534 265.122 295.117C263.386 298.7 261.044 302.344 258.232 306.205C252.606 313.928 245.079 322.427 237.036 330.471C228.993 338.515 220.491 346.044 212.769 351.669C208.907 354.482 205.264 356.824 201.681 358.559C198.098 360.295 194.696 361.929 189.493 361.106C179.957 359.601 171.596 354.129 164.733 347.266C157.871 340.404 152.399 332.044 150.893 322.506C150.073 317.304 151.705 313.902 153.44 310.319C155.177 306.736 157.52 303.093 160.332 299.231C165.957 291.509 173.486 283.007 181.529 274.964C189.572 266.921 198.071 259.394 205.794 253.769C209.654 250.956 213.299 248.614 216.882 246.879C219.569 245.576 222.154 244.332 225.474 244.139C226.048 244.105 226.624 244.103 227.198 244.134L227.199 244.133ZM226.263 262.109C226.538 262.152 226.826 262.212 227.123 262.282C227.207 262.242 226.971 262.22 226.263 262.108V262.109ZM227.123 262.282C226.985 262.346 226.005 262.456 224.728 263.075C222.653 264.08 219.688 265.913 216.391 268.315C209.794 273.12 201.767 280.177 194.254 287.69C190.61 291.331 187.084 295.089 183.682 298.957L213.042 328.317C216.909 324.914 220.666 321.388 224.307 317.744C231.819 310.231 238.877 302.204 243.681 295.607C246.083 292.309 247.916 289.345 248.921 287.271C249.541 285.995 249.651 285.015 249.714 284.878C248.787 280.978 245.564 275.366 241.099 270.898C236.632 266.433 231.019 263.211 227.119 262.284L227.123 262.282ZM249.716 284.876C249.786 285.172 249.846 285.46 249.89 285.736C249.78 285.026 249.755 284.791 249.716 284.876ZM172.524 313.251C171.284 315.144 170.278 316.846 169.64 318.163C169.024 319.435 168.91 320.41 168.848 320.553C169.773 324.453 172.995 330.068 177.463 334.536C181.931 339.004 187.545 342.226 191.445 343.151C191.589 343.088 192.565 342.975 193.835 342.358C195.153 341.718 196.855 340.714 198.748 339.473L172.525 313.25L172.524 313.251ZM191.444 343.151C191.354 343.191 191.587 343.211 192.3 343.323C192.027 343.28 191.74 343.221 191.445 343.151H191.444ZM168.847 320.554C168.777 320.259 168.717 319.972 168.675 319.698C168.787 320.41 168.807 320.644 168.847 320.554ZM35.8949 373.893L19.7419 391.54C31.3959 441.012 70.9879 480.604 120.462 492.258L138.107 476.105C94.3019 456.21 55.7899 417.698 35.8949 373.893Z" fill="#444856"/>
</svg>

<svg xmlns="http://www.w3.org/2000/svg" viewBox="0 0 512 512" style="height: 512px; width: 512px;"><g class="" transform="translate(0,0)" style=""><path d="M340.162 18.186c-9.86.138-17.596 2.957-22.69 8.052-9.06 9.058-10.928 26.47-3.318 49.3 7.61 22.832 24.437 49.604 48.57 73.737 24.134 24.134 50.906 40.96 73.737 48.57 22.832 7.61 40.244 5.744 49.302-3.314 6.863-6.862 9.587-18.53 7.2-33.71-1.16 5.313-3.534 10.246-7.442 14.155-5.97 5.968-14.318 8.374-22.776 8.31-8.458-.063-17.446-2.342-26.898-6.234-18.906-7.784-39.76-22.21-59.22-41.673-19.463-19.462-33.89-40.317-41.675-59.223-3.89-9.452-6.17-18.438-6.233-26.896-.01-1.117.03-2.232.11-3.34a78.697 32.79 45 0 0 35.736 55.848 78.697 32.79 45 0 0 78.832 32.46 78.697 32.79 45 0 0-32.46-78.833 78.697 32.79 45 0 0-66.003-37.06 57.61 57.61 0 0 0-4.77-.147zm-48.767 32.1c-6.988 6.83-13.964 14.17-18.243 20.107-5.328 7.392-11.51 14.412-15.722 21.066-4.212 6.653-6.17 12.26-5.323 17.483 11.187 68.933 82.017 139.763 150.95 150.95 5.223.847 10.83-1.11 17.484-5.323 6.655-4.212 13.675-10.394 21.067-15.722 5.936-4.28 13.276-11.255 20.108-18.243-9.795-.105-20.302-2.133-30.945-5.68-26.306-8.77-54.92-27.068-80.772-52.92-25.853-25.854-44.15-54.47-52.92-80.775-3.548-10.643-5.578-21.15-5.683-30.945zm-47.39 96.247L49.244 359.31c17.678 44.414 59.03 85.767 103.446 103.446l212.777-194.76c-53.32-20.988-100.475-68.143-121.463-121.463zm-16.806 97.6c.597.03 1.22.094 1.87.197 9.537 1.506 17.898 6.978 24.76 13.84 6.862 6.862 12.334 15.223 13.84 24.76.82 5.203-.81 8.604-2.547 12.187-1.736 3.583-4.078 7.227-6.89 11.088-5.626 7.723-13.153 16.222-21.196 24.266-8.043 8.044-16.545 15.573-24.267 21.198-3.862 2.813-7.505 5.155-11.088 6.89-3.583 1.736-6.985 3.37-12.188 2.547-9.536-1.505-17.897-6.977-24.76-13.84-6.862-6.862-12.334-15.222-13.84-24.76-.82-5.202.812-8.604 2.547-12.187 1.737-3.583 4.08-7.226 6.892-11.088 5.625-7.722 13.154-16.224 21.197-24.267s16.542-15.57 24.265-21.195c3.86-2.813 7.505-5.155 11.088-6.89 2.687-1.303 5.272-2.547 8.592-2.74a15.218 15.218 0 0 1 1.724-.005zm-.936 17.976c.275.043.563.103.86.173.084-.04-.152-.062-.86-.174zm.86.173c-.138.064-1.118.174-2.395.793-2.075 1.005-5.04 2.838-8.337 5.24-6.597 4.805-14.624 11.862-22.137 19.375a239.788 239.788 0 0 0-10.572 11.267l29.36 29.36a240.85 240.85 0 0 0 11.265-10.573c7.512-7.513 14.57-15.54 19.374-22.137 2.402-3.298 4.235-6.262 5.24-8.336.62-1.276.73-2.256.793-2.393-.927-3.9-4.15-9.512-8.615-13.98-4.467-4.465-10.08-7.687-13.98-8.614zm22.593 22.594c.07.296.13.584.174.86-.11-.71-.134-.945-.173-.86zm-77.192 28.375c-1.24 1.893-2.246 3.595-2.884 4.912-.616 1.272-.73 2.247-.792 2.39.925 3.9 4.147 9.515 8.615 13.983s10.082 7.69 13.982 8.615c.144-.063 1.12-.176 2.39-.793 1.318-.64 3.02-1.644 4.913-2.885l-26.223-26.223zm18.92 29.9c-.09.04.143.06.856.172-.273-.043-.56-.102-.855-.172zm-22.597-22.597c-.07-.295-.13-.582-.172-.856.112.712.132.945.172.855zM35.895 373.893 19.742 391.54c11.654 49.472 51.246 89.064 100.72 100.718l17.645-16.153C94.302 456.21 55.79 417.698 35.895 373.893z" fill="#fff" fill-opacity="1"></path></g></svg>
